X: 18831
T: Imelda Roland's
R: reel
M: 4/4
K: Edorian
|:(3BcB GA BGdB|ADED FAAF|EBEF ~G3 A|BABd egfe|
d3 c d2 AG|FDAD BDFA|GBEF G3e|dBAd B~E3:|
|:Beed e2 ga|be ~e2 bege|Addc d2 fg|ad ~d2 adfa|
{f}g2 fe edBc|~d3 B AGFA|GBEF ~G3e|dBAd BE ~E2:|

